!!!COM: Music21
!!!OTL: barndance_Kielder-Schottische
!!!OMV: barndance_Kielder-Schottische
**kern
*clefG2
*k[f#c#]
*D:
*M4/4
=1
8.dL
16eJk
=||
8.f#L
16gJk
8.f#L
16eJk
4d
8.dL
16AJk
=
8.BL
16dJk
8.eL
16dJk
16eLL
16eJJ
8r
8.dL
16eJk
=
8.f#L
16gJk
8.f#L
16eJk
4d
8.dL
16AJk
=
8.BL
16dJk
8.eL
16gJk
16f#LL
16dJJ
8r
8.dL
16eJk
!!linebreak:original
=||
8.f#L
16gJk
8.f#L
16eJk
4d
8.dL
16AJk
=
8.BL
16dJk
8.eL
16dJk
16eLL
16eJJ
8r
8.dL
16eJk
=
8.f#L
16gJk
8.f#L
16eJk
4d
8.dL
16AJk
=
8.BL
16dJk
8.eL
16gJk
16f#LL
16dJJ
8r
8d
8r
!!linebreak:original
=||
8.aL
16dJk
12f#L
12e
12dJ
8.aL
16dJk
12f#L
12e
12dJ
=
8.BL
16dJk
8.eL
16dJk
16eLL
16eJJ
4r
8e
=
8.aL
16dJk
12f#L
12e
12dJ
8.aL
16dJk
12f#L
12e
12dJ
=
8.BL
16dJk
8.eL
16gJk
16f#LL
16dJJ
4r
8d
!!linebreak:original
=||
8.aL
16dJk
12f#L
12e
12dJ
8.aL
16dJk
12f#L
12e
12dJ
=
8.BL
16dJk
8.eL
16dJk
16eLL
16eJJ
4r
8e
=
8.aL
16dJk
12f#L
12e
12dJ
8.aL
16dJk
12f#L
12e
12dJ
=
8.BL
16dJk
8.eL
16gJk
16f#LL
16dJJ
4.r
!!linebreak:original
=||
8.ff#L
16ggJk
12aaL
12gg
12ff#J
8.eeL
16ff#Jk
12ggL
12ff#
12eeJ
=
8.ddL
16eeJk
12ff#L
12ee
12ddJ
8.cc#L
16ddJk
12eeL
12dd
12cc#J
=
8.bL
16cc#Jk
12ddL
12cc#
12bJ
8.aL
16bJk
8.ddL
16eeJk
=
8.ff#L
16ddJk
8.eeL
16ff#Jk
16eeLL
16eeJJ
4.r
!!linebreak:original
=
8.ff#L
16ggJk
12aaL
12gg
12ff#J
8.eeL
16ff#Jk
12ggL
12ff#
12eeJ
=
8.ddL
16eeJk
12ff#L
12ee
12ddJ
8.cc#L
16ddJk
12eeL
12dd
12cc#J
=
8.bL
16cc#Jk
12ddL
12cc#
12bJ
8.aL
16bJk
8.ddL
16eeJk
=
8.ff#L
16ddJk
8.eeL
16cc#Jk
16ddLL
16ddJJ
4.r
!!linebreak:original
=||
8.ff#L
16ggJk
12aaL
12gg
12ff#J
8.eeL
16ff#Jk
12ggL
12ff#
12eeJ
=
8.ddL
16eeJk
12ff#L
12ee
12ddJ
8.cc#L
16ddJk
12eeL
12dd
12cc#J
=
8.bL
16cc#Jk
12ddL
12cc#
12bJ
8.aL
16bJk
8.ddL
16eeJk
=
8.ff#L
16ddJk
8.eeL
16ff#Jk
16eeLL
16eeJJ
4.r
!!linebreak:original
=
8.ff#L
16ggJk
12aaL
12gg
12ff#J
8.eeL
16ff#Jk
12ggL
12ff#
12eeJ
=
8.ddL
16eeJk
12ff#L
12ee
12ddJ
8.cc#L
16ddJk
12eeL
12dd
12cc#J
=
8.bL
16cc#Jk
12ddL
12cc#
12bJ
8.aL
16bJk
8.ddL
16eeJk
=
8.ff#L
16ddJk
8.eeL
16cc#Jk
16ddLL
16ddJJ
4.r
=||
*-
